X:1
T:Have Thine Own Way, Lord
T:Have Thine Own Way, Lord
T:George Coles Stebbins
T:Adelaide Addison Pollard, 1907
T:Public Domain Courtesy of the Cyber Hymnal™
C:George Coles Stebbins
Z:Public Domain
Z:Courtesy of the Cyber Hymnal™
%%score 1 2
L:1/8
Q:1/4=140
M:9/4
K:Eb
V:1 treble 
V:2 bass 
V:1
 [EG]2 [EF]2 [EG]2 | [EA]6 [EG]6 [B,E]2 [B,D]2 [B,E]2 | [DF]12 [DF]2 [D=E]2 [DF]2 | %3
w: 1.~Have Thine own|way, Lord! Have Thine own|way! Thou art the|
w: 2.~Have Thine own|way, Lord! Have Thine own|way! Search me and|
w: 3.~Have Thine own|way, Lord! Have Thine own|way! Wound- ed and|
w: 4.~Have Thine own|way, Lord! Have Thine own|way! Hold o’er my|
 [DG]6 [DF]6 [B,F]2 [B,E]2 [B,D]2 | [B,E]12 [EG]2 [EF]2 [EG]2 | [EA]6 [EG]6 [_DB]2 [C=A]2 [DB]2 | %6
w: Pot- ter, I am the|clay. Mold me and|make me af- ter Thy|
w: try me, Mas- ter, to-|day! Whit- er than|snow, Lord, wash me just|
w: wear- y, help me, I|pray! Pow- er, all|pow- er, sure- ly is|
w: be- ing ab- so- lute|sway! Fill with Thy|Spir- it ’till all shall|
 [Ec]12 [Ec]2 [Ed]2 [Ec]2 | [EB]6 [EG]6 [B,F]2 [B,E]2 [DF]2 | [B,E]12 |] %9
w: will, While I am|wait- ing, yield- ed and|still.|
w: now, As in Thy|pre- sence hum- bly I|bow.|
w: Thine! Touch me and|heal me, Sav- ior di-|vine.|
w: see Christ on- ly,|al- ways, liv- ing in|me.|
V:2
 [E,B,]2 [E,A,]2 [E,B,]2 | [A,,C]6 [E,B,]6 [E,G,]2 [E,F,]2 [E,G,]2 | %2
 [B,,B,]12 [B,,A,]2 [B,,G,]2 [B,,A,]2 | [B,,B,]6 [B,,A,]6 [B,,A,]2 [B,,G,]2 [B,,F,]2 | %4
 [E,G,]12 [E,B,]2 [E,A,]2 [E,B,]2 | [A,C]6 [E,B,]6 [E,G,]2 [E,G,]2 [E,G,]2 | %6
 [A,,A,]12 [A,,A,]2 [A,,B,]2 [A,,A,]2 | [B,,G,]6 [B,,B,]6 [B,,A,]2 [B,,G,]2 [B,,A,]2 | [E,G,]12 |] %9

